packages/crs-framework/resources/svg/chevron-up.svg

<svg width="24" height="24" viewBox="0 0 24 24" fill="none" xmlns="http://www.w3.org/2000/svg">
<path d="M7.14541 15.6446L12.0063 10.9309L16.8671 15.6446C17.3557 16.1185 18.145 16.1185 18.6336 15.6446C19.1221 15.1708 19.1221 14.4055 18.6336 13.9317L12.8832 8.35535C12.3946 7.88155 11.6054 7.88155 11.1168 8.35535L5.36644 13.9317C4.87785 14.4055 4.87785 15.1708 5.36644 15.6446C5.85503 16.1063 6.65682 16.1185 7.14541 15.6446Z" fill="#272C37"/>
</svg>

<svg width="24" height="24" xmlns="http://www.w3.org/2000/svg"><path d="m7.145 15.645 4.861-4.714 4.861 4.714a1.275 1.275 0 0 0 1.767 0 1.184 1.184 0 0 0 0-1.713l-5.75-5.577a1.275 1.275 0 0 0-1.767 0l-5.75 5.577a1.184 1.184 0 0 0 0 1.713c.488.461 1.29.474 1.778 0Z"/></svg>
